X: 20811
T: Johnny The Woodworker
R: slip jig
M: 9/8
K: Amajor
|:c2 B A2ea2e|B2AF2ef2e|A2FE2FA2F|A2Bc5|
c2 B A2ea2e|B2AF2ef2e|A2FE2FA2F|A2BA5:|
|:c2=f ^f3 f2a|f2ec5|B2cf3f2a|f2ec5|
F2AB3B2c|B2A BAFE2F|A2Bc2af2e|c2BA5:|

